!!!COM: Bach, Johann Sebastian
!!!OTL: 217. Ach Gott, wie manches Herzeleid
!!!ONM: No. 217
!!!OCL: Erk
!!!SCA: BWV 153.9
!!!YOE: Riemenschneider, Albert
!!!OPR: 371 Harmonized Chorales and 69 Chorale Melodies with Figured Bass
!!!OPT: Bach Chorale Harmonizations
!!!ONB: From the end of Cantata 153
**harm	**root	**kern	**kern	**kern	**kern
!	!	!bass	!tenor	!alto	!sprno
*Iorgan	*Iorgan	*Iorgan	*Iorgan	*Iorgan	*Iorgan
*k[]	*k[]	*k[]	*k[]	*k[]	*k[]
*C:	*C:	*C:	*C:	*C:	*C:
*M3/4	*M3/4	*M3/4	*M3/4	*M3/4	*M3/4
*MM60	*MM60	*MM60	*MM60	*MM60	*MM60
=1-	=1-	=1-	=1-	=1-	=1-
I	4CC	4C	4G	4e	4cc
Ib	4CC	4E	4c	4g	4cc
I	4CC	4C	4e	4g	4cc
=2	=2	=2	=2	=2	=2
IV	4FF	2F	4c	4f	4a
V7d	4GG	.	4d	4g	4b
Ib	4CC	4E	4e	4g	4cc
=3	=3	=3	=3	=3	=3
Vb/V	2DD	2F#	2d	2a	4dd
.	.	.	.	.	4cc
V	4GG	4G	4d	4g	4b
=4	=4	=4	=4	=4	=4
V/V;	2.DD;	2.D;	2.d;	2.f#;	2.a;
=5	=5	=5	=5	=5	=5
V/V	4DD	4D	4d	4f#	4a
V	4GG	4G	4d	4g	4b
Ib	4CC	4E	4e	4g	4cc
=6	=6	=6	=6	=6	=6
Vb	2GG	2BB	2d	2g	2dd
I	4CC	4C	4e	4g	4cc
=7	=7	=7	=7	=7	=7
V	4GG	4G	4d	4g	4b
V/V	2DD	2D	4.d	4g	2a
.	.	.	.	4f#	.
.	.	.	8c	.	.
=8	=8	=8	=8	=8	=8
V;	2.GG;	2.GG;	2.B;	2.g;	2.g;
=9	=9	=9	=9	=9	=9
!!linebreak: 2
I	4CC	4c	4c	4g	4ee
Vb/vi	4EE	4G#	4B	4e	4ee
V/vi	4EE	4E	4e	4g#	4ee
=10	=10	=10	=10	=10	=10
vi	4AA	2A	4e	4a	4cc
vii7d	4BB	.	4f	4b	4dd
V7/ii	4AA	4AA	4g	4cc#	4ee
=11	=11	=11	=11	=11	=11
ii	4DD	4D	4f	4dd	4ff
Ib	4CC	4E	4g	2cc	2ee
IV7	4FF	4F	4c	.	.
=12	=12	=12	=12	=12	=12
V;	2.GG;	2.G;	2.B;	2.g;	2.dd;
=13	=13	=13	=13	=13	=13
Ib	4CC	4E	4c	4g	4cc
viib	4BB	4D	4F	4b	4dd
I	4CC	4C	4G	4cc	4ee
=14	=14	=14	=14	=14	=14
ii7b	4DD	4F	4A	4cc	2dd
V	4GG	4G	4B	4b	.
vi	4AA	4A	4c	4e	4cc
=15	=15	=15	=15	=15	=15
V7b/V	4DD	4F#	4d	4a	4cc
V	2GG	4G	2d	2g	2b
.	.	4GG	.	.	.
=16	=16	=16	=16	=16	=16
I;	2.CC;	2.C;	2.e;	2.g;	2.cc;
==	==	==	==	==	==
*-	*-	*-	*-	*-	*-
!!!CDT: 1685/3//-1750/7/28
!!!OCY: Deutschland
!!!AGN: chorale
!!!AST: Baroque
!!!AIN: vox
!!!YOY: 1941
!!!PPP: New York; London
!!!PPR: G. Schirmer
!!!ENC: David Huron
!!!EED: David Huron
!!!YEN: United States of America
!!!YER: 1992
!!!YEC: Copyright 1992 David Huron
!!!YEM: Rights to all derivative electronic formats reserved.
!!!YER: March 20, 1996
!!!AMT: simple quadruple
!!!EEV: 1.1
!!chor2scor: -l 2 -s 0.6 -o %b.pmx
